src/static/images/SRF.svg

<svg width="73" height="30" viewBox="0 0 73 30" version="1.1" xmlns="http://www.w3.org/2000/svg" xmlns:xlink="http://www.w3.org/1999/xlink">
<title>SRF</title>
<desc>Created using Figma</desc>
<g id="Canvas" transform="translate(527 449)">
<g id="SRF">
<g id="Group">
<g id="Vector">
<use xlink:href="#path0_fill" transform="translate(-473.99 -448.704)" fill="#BDBDBD"/>
</g>
<g id="Vector">
<use xlink:href="#path1_fill" transform="translate(-501.744 -448.704)" fill="#BDBDBD"/>
</g>
<g id="Vector">
<use xlink:href="#path2_fill" transform="translate(-527 -449)" fill="#BDBDBD"/>
</g>
</g>
</g>
</g>
<defs>
<path id="path0_fill" d="M 6.60591 11.9113L 6.60591 5.68965L 18.5911 5.68965C 19.5074 5.68965 19.7882 5.36453 19.7882 4.44828L 19.7882 1.24138C 19.7882 0.325123 19.5074 -4.50999e-07 18.5911 -4.50999e-07L 1.19704 -4.50999e-07C 0.280788 -4.50999e-07 -9.01997e-07 0.325123 -9.01997e-07 1.24138L -9.01997e-07 28.197C -9.01997e-07 29.1133 0.280788 29.4384 1.19704 29.4384L 5.40887 29.4384C 6.32512 29.4384 6.60591 29.1133 6.60591 28.197L 6.60591 17.5714L 17.4975 17.5714C 18.4138 17.5714 18.6946 17.2463 18.6946 16.33L 18.6946 13.1232C 18.6946 12.2069 18.4138 11.8818 17.4975 11.8818L 6.60591 11.8818L 6.60591 11.9113Z"/>
<path id="path1_fill" d="M 10.7143 14.2463L 10.2562 16.1675C 10.1232 16.7143 10.0788 16.9951 10.0788 17.1724C 10.0788 17.6305 10.2118 18 10.5369 18.5468L 15.9754 28.3448C 16.4335 29.1281 16.803 29.4384 17.8966 29.4384L 22.8916 29.4384C 23.5271 29.4384 24.3103 29.0246 23.5862 27.8867L 16.9064 16.803C 19.1527 15.3842 21.665 13.3744 21.665 8.92611C 21.665 3.2069 18.4581 -4.50999e-07 11.4089 -4.50999e-07L 1.19704 -4.50999e-07C 0.280788 -4.50999e-07 9.01997e-07 0.325123 9.01997e-07 1.24138L 9.01997e-07 28.197C 9.01997e-07 29.1133 0.280788 29.4384 1.19704 29.4384L 5.40887 29.4384C 6.32513 29.4384 6.60591 29.1133 6.60591 28.197L 6.60591 5.4532L 10.9507 5.4532C 13.6995 5.4532 15.0296 6.45813 15.0296 9.02956C 15.0296 11.3645 13.9803 12.1034 12.931 12.5468C 11.5862 13.1084 11.1281 12.5025 10.7143 14.2463L 10.7143 14.2463Z"/>
<path id="path2_fill" d="M 0.561236 25.0197L 0.0144382 28.5369C -0.0742318 29.2315 0.250891 29.4975 0.842024 29.5862C 2.17207 29.7635 5.51197 30 8.76321 30C 16.0489 30 21.3543 27.6207 21.3543 20.8522C 21.3543 16.8768 19.6105 13.8916 13.5809 12.3399L 10.1967 11.468C 7.90606 10.8768 6.8568 10.1379 6.8568 8.4532C 6.8568 6.07389 9.05877 5.61576 11.1573 5.61576C 13.9947 5.61576 16.8765 5.83744 18.0292 5.94089C 19.2263 6.02956 19.5366 5.89655 19.7287 4.89163L 20.2755 1.46305C 20.3642 0.783251 20.0391 0.502463 19.4479 0.413793C 18.1179 0.236453 15.1918 -4.50999e-07 11.4824 -4.50999e-07C 3.93069 -4.50999e-07 0.265669 3.29557 0.265669 8.51232C 0.265669 13.2266 2.82232 16.0197 7.2706 17.1576L 10.6548 18.0296C 13.4479 18.7685 14.6302 19.5813 14.6302 21.3251C 14.6302 23.8818 12.8864 24.3399 8.67454 24.3399C 6.75335 24.3399 3.41345 24.0591 2.27552 23.9704C 1.0637 23.8818 0.753354 24.0148 0.561236 25.0197L 0.561236 25.0197Z"/>
</defs>
</svg>

<svg width="73" height="30" viewBox="0 0 73 30" xmlns="http://www.w3.org/2000/svg" xmlns:xlink="http://www.w3.org/1999/xlink"><title>SRF</title><desc>Created using Figma</desc><use xlink:href="#a" transform="translate(53.01 .296)" fill="#BDBDBD"/><use xlink:href="#b" transform="translate(25.256 .296)" fill="#BDBDBD"/><use xlink:href="#c" fill="#BDBDBD"/><defs><path id="a" d="M6.606 11.911V5.69H18.59c.916 0 1.197-.325 1.197-1.242V1.241C19.787.325 19.507 0 18.59 0H1.197C.281 0 0 .325 0 1.241v26.956c0 .916.28 1.241 1.197 1.241h4.212c.916 0 1.197-.325 1.197-1.241V17.571h10.891c.917 0 1.198-.325 1.198-1.241v-3.207c0-.916-.281-1.241-1.198-1.241H6.606v.03z"/><path id="b" d="M10.714 14.246l-.458 1.921c-.133.547-.177.828-.177 1.005 0 .459.133.828.458 1.375l5.438 9.798c.458.783.828 1.093 1.922 1.093h4.995c.635 0 1.418-.413.694-1.551l-6.68-11.084c2.247-1.419 4.759-3.429 4.759-7.877C21.665 3.206 18.458 0 11.409 0H1.197C.281 0 0 .325 0 1.241v26.956c0 .916.28 1.241 1.197 1.241h4.212c.916 0 1.197-.325 1.197-1.241V5.453h4.345c2.748 0 4.079 1.005 4.079 3.577 0 2.335-1.05 3.073-2.099 3.517-1.345.561-1.803-.045-2.217 1.7z"/><path id="c" d="M.561 25.02l-.547 3.517c-.088.695.237.96.828 1.05 1.33.177 4.67.413 7.921.413 7.286 0 12.591-2.38 12.591-9.148 0-3.975-1.744-6.96-7.773-8.512l-3.384-.872c-2.29-.591-3.34-1.33-3.34-3.015 0-2.38 2.202-2.837 4.3-2.837 2.838 0 5.72.221 6.872.325 1.197.089 1.508-.044 1.7-1.05l.547-3.428c.088-.68-.237-.96-.828-1.05C18.118.237 15.192 0 11.482 0 3.931 0 .266 3.296.266 8.512c0 4.715 2.556 7.508 7.005 8.646l3.384.872c2.793.738 3.975 1.551 3.975 3.295 0 2.557-1.744 3.015-5.955 3.015-1.922 0-5.262-.28-6.4-.37-1.211-.088-1.522.045-1.714 1.05z"/></defs></svg>
